src/inquiries.svg

<svg xmlns="http://www.w3.org/2000/svg" class="dibsvg-svg dibsvg-inquiries" viewBox="0 0 100 100">
    <path d="M69.6901079,33.0773333 C70.2151108,32.9670753 70.7822203,33.1428101 71.1503884,33.5830481 C71.3864651,33.8653374 71.5010335,34.2088961 71.499759,34.5501728 C71.4999195,34.559207 71.5,34.5682608 71.5,34.5773333 L71.5,65.4546667 C71.5,66.2830938 70.8284271,66.9546667 70,66.9546667 L30,66.9546667 C29.1715729,66.9546667 28.5,66.2830938 28.5,65.4546667 L28.5,34.5773333 C28.5,33.7489062 29.1715729,33.0773333 30,33.0773333 L69.6901079,33.0773333 Z M31.5,37.9335953 L31.5,63.9546667 L68.5,63.9546667 L68.5,37.7549583 L51.2926852,52.1453218 C50.7463466,52.6022211 49.9540446,52.6119482 49.3966536,52.1685993 L31.5,37.9335953 Z M33.9855504,36.0773333 L50.3066375,49.0591312 L65.8296563,36.0773333 L33.9855504,36.0773333 Z M50,100 C22.3857625,100 0,77.6142375 0,50 C0,22.3857625 22.3857625,0 50,0 C77.6142375,0 100,22.3857625 100,50 C100,77.6142375 77.6142375,100 50,100 Z M50,96 C75.4050985,96 96,75.4050985 96,50 C96,24.5949015 75.4050985,4 50,4 C24.5949015,4 4,24.5949015 4,50 C4,75.4050985 24.5949015,96 50,96 Z"/>
</svg>

<svg xmlns="http://www.w3.org/2000/svg" class="dibsvg-svg dibsvg-inquiries" viewBox="0 0 100 100">
    <path d="M69.69 33.077a1.5 1.5 0 0 1 1.81 1.5v30.878a1.5 1.5 0 0 1-1.5 1.5H30a1.5 1.5 0 0 1-1.5-1.5V34.577a1.5 1.5 0 0 1 1.5-1.5h39.69zM31.5 37.934v26.02h37V37.756l-17.207 14.39a1.5 1.5 0 0 1-1.896.024L31.5 37.934zm2.486-1.857l16.32 12.982L65.83 36.077H33.986zM50 100C22.386 100 0 77.614 0 50S22.386 0 50 0s50 22.386 50 50-22.386 50-50 50zm0-4c25.405 0 46-20.595 46-46S75.405 4 50 4 4 24.595 4 50s20.595 46 46 46z"/>
</svg>
